img/svg/icon-font/dots.svg

<svg width="22" height="22" viewBox="0 0 22 22" fill="none" xmlns="http://www.w3.org/2000/svg">
<path d="M3.09375 14.0938C1.38792 14.0938 0 12.7058 0 11C0 9.29417 1.38792 7.90625 3.09375 7.90625C4.79958 7.90625 6.1875 9.29417 6.1875 11C6.1875 11.4747 5.8028 11.8594 5.32812 11.8594C4.85345 11.8594 4.46875 11.4747 4.46875 11C4.46875 10.2418 3.85191 9.625 3.09375 9.625C2.33559 9.625 1.71875 10.2418 1.71875 11C1.71875 11.7582 2.33559 12.375 3.09375 12.375C3.56842 12.375 3.95312 12.7597 3.95312 13.2344C3.95312 13.709 3.56842 14.0938 3.09375 14.0938ZM19.7656 13.2344C19.7656 12.7597 19.3809 12.375 18.9062 12.375C18.1481 12.375 17.5312 11.7582 17.5312 11C17.5312 10.2418 18.1481 9.625 18.9062 9.625C19.6644 9.625 20.2812 10.2418 20.2812 11C20.2812 11.4747 20.666 11.8594 21.1406 11.8594C21.6153 11.8594 22 11.4747 22 11C22 9.29417 20.6121 7.90625 18.9062 7.90625C17.2004 7.90625 15.8125 9.29417 15.8125 11C15.8125 12.7058 17.2004 14.0938 18.9062 14.0938C19.3809 14.0938 19.7656 13.709 19.7656 13.2344ZM11.8594 13.2344C11.8594 12.7597 11.4747 12.375 11 12.375C10.2418 12.375 9.625 11.7582 9.625 11C9.625 10.2418 10.2418 9.625 11 9.625C11.7582 9.625 12.375 10.2418 12.375 11C12.375 11.4747 12.7597 11.8594 13.2344 11.8594C13.709 11.8594 14.0938 11.4747 14.0938 11C14.0938 9.29417 12.7058 7.90625 11 7.90625C9.29417 7.90625 7.90625 9.29417 7.90625 11C7.90625 12.7058 9.29417 14.0938 11 14.0938C11.4747 14.0938 11.8594 13.709 11.8594 13.2344Z" fill="#4C51CB"/>
</svg>

<svg width="22" height="22" fill="none" xmlns="http://www.w3.org/2000/svg"><path d="M3.094 14.094A3.097 3.097 0 010 11a3.097 3.097 0 013.094-3.094A3.097 3.097 0 016.188 11a.86.86 0 11-1.72 0c0-.758-.616-1.375-1.374-1.375-.758 0-1.375.617-1.375 1.375s.617 1.375 1.375 1.375a.86.86 0 110 1.719zm16.672-.86a.86.86 0 00-.86-.859A1.377 1.377 0 0117.531 11c0-.758.617-1.375 1.375-1.375s1.375.617 1.375 1.375A.86.86 0 1022 11a3.097 3.097 0 00-3.094-3.094A3.097 3.097 0 0015.813 11a3.097 3.097 0 003.093 3.094.86.86 0 00.86-.86zm-7.907 0a.86.86 0 00-.859-.859A1.377 1.377 0 019.625 11c0-.758.617-1.375 1.375-1.375s1.375.617 1.375 1.375a.86.86 0 101.719 0A3.097 3.097 0 0011 7.906 3.097 3.097 0 007.906 11 3.097 3.097 0 0011 14.094a.86.86 0 00.86-.86z" fill="#4C51CB"/></svg>
